www/assets/images/test_icons/comment.svg

<svg fill="none" height="24" viewBox="0 0 24 24" width="24" xmlns="http://www.w3.org/2000/svg"><path clip-rule="evenodd" d="m4.59182 15.3042c-2.24786-5.51745 1.81124-11.5542 7.76908-11.5542h.3214c4.4556 0 8.0676 3.61201 8.0676 8.0676 0 4.9609-4.0215 8.9824-8.9823 8.9824h-7.82029c-.31826 0-.60186-.2009-.70749-.5011s-.01028-.6344.23787-.8337l1.97149-1.5833c.0862-.0692.11669-.1868.07498-.2892zm7.76908-10.0542c-4.89256 0-8.22588 4.9574-6.37994 9.4883l.93234 2.2885c.292.7167.07854 1.5401-.52488 2.0247l-.30945.2485h5.68863c4.1324 0 7.4823-3.35 7.4823-7.4824 0-3.62716-2.9404-6.5676-6.5676-6.5676z" fill="#fff" fill-rule="evenodd"/></svg>

<svg width="24" height="24" viewBox="0 0 24 24" fill="none" xmlns="http://www.w3.org/2000/svg">
<path fill-rule="evenodd" clip-rule="evenodd" d="M4.59182 15.3042C2.34396 9.78675 6.40306 3.75 12.3609 3.75H12.6823C17.1379 3.75 20.7499 7.36201 20.7499 11.8176C20.7499 16.7785 16.7284 20.8 11.7676 20.8H3.94731C3.62905 20.8 3.34545 20.5991 3.23982 20.2989C3.13419 19.9987 3.22954 19.6645 3.47769 19.4652L5.44918 17.8819C5.53538 17.8127 5.56587 17.6951 5.52416 17.5927L4.59182 15.3042ZM12.3609 5.25C7.46834 5.25 4.13502 10.2074 5.98096 14.7383L6.9133 17.0268C7.2053 17.7435 6.99184 18.5669 6.38842 19.0515L6.07897 19.3H11.7676C15.9 19.3 19.2499 15.95 19.2499 11.8176C19.2499 8.19044 16.3095 5.25 12.6823 5.25H12.3609Z" fill="white"/>
</svg>
